app/img/elements/quote.svg

<svg width="56" height="54" viewBox="0 0 56 54" fill="none" xmlns="http://www.w3.org/2000/svg">
<path d="M12.9953 24.9354V29.4431H24.2572V53.6998H0V29.4431H0.000586298V24.9354C0.000586298 15.7818 2.63424 8.98484 7.82884 4.73212C11.4223 1.79037 15.9708 0.298828 21.3483 0.298828V13.293C18.4291 13.293 12.9953 13.293 12.9953 24.9354ZM53.0914 13.293V0.298828C47.7141 0.298828 43.1656 1.79037 39.5722 4.73212C34.3776 8.98484 31.7437 15.7821 31.7437 24.9354V29.4431V53.6998H56V29.4431H44.7381V24.9354C44.7384 13.293 50.1722 13.293 53.0914 13.293Z" fill="#F5F5F5"/>
</svg>

<svg width="56" height="54" fill="none" xmlns="http://www.w3.org/2000/svg"><path d="M12.995 24.935v4.508h11.262V53.7H0V24.935C0 15.782 2.635 8.985 7.83 4.732 11.422 1.79 15.97.3 21.349.3v12.994c-2.92 0-8.354 0-8.354 11.642zm40.096-11.642V.299c-5.377 0-9.925 1.491-13.519 4.433-5.194 4.253-7.828 11.05-7.828 20.203V53.7H56V29.443H44.738v-4.508c0-11.642 5.434-11.642 8.353-11.642z" fill="#F5F5F5"/></svg>
